dist/img/icons/coffee_beans_small_light.svg

<svg width="10" height="10" viewBox="0 0 10 10" fill="none" xmlns="http://www.w3.org/2000/svg">
<path d="M1.83891 8.87368C1.37683 8.11039 1.69117 6.91342 2.6472 6.01801C3.73297 5.00139 5.23407 4.75905 6.00048 5.47671C6.00129 5.47761 6.00225 5.47863 6.00341 5.47959C5.85002 5.89757 5.36145 6.78669 3.89731 7.26745C2.55591 7.70802 2.03858 8.40871 1.83891 8.87368ZM5.54923 6.64937C5.19907 6.97758 4.70137 7.29966 3.99635 7.53135C2.56555 8.00115 2.1658 8.77049 2.05425 9.14302C2.05965 9.14808 2.06401 9.15337 2.06908 9.15803C2.83542 9.87573 4.33672 9.63335 5.42221 8.61675C6.38819 7.71213 6.69891 6.49977 6.216 5.73778C6.09977 5.99157 5.89761 6.32311 5.54923 6.64937ZM2.58841 3.34302C4.1341 3.46987 4.97028 2.84804 5.2938 2.52645C5.29324 2.52518 5.29284 2.52373 5.29241 2.52258C4.90987 1.57308 3.43534 1.21477 1.99896 1.72231C0.733966 2.16932 -0.0791763 3.13872 0.006087 4.01245C0.392636 3.66591 1.17229 3.22702 2.58841 3.34302ZM3.38434 5.16094C4.66261 4.70941 5.47881 3.72447 5.37404 2.84378C5.15648 3.03025 4.82638 3.25446 4.36547 3.41737C3.90208 3.58108 3.3068 3.68271 2.56257 3.62167C1.05226 3.49766 0.349361 4.04449 0.0836794 4.34113C0.0863793 4.34772 0.0882718 4.35419 0.0907194 4.36039C0.473332 5.31014 1.94791 5.66859 3.38434 5.16094ZM7.85773 3.1809C8.7851 2.0157 8.65926 1.02263 8.53696 0.595939C8.53554 0.595797 8.53416 0.595301 8.53284 0.595017C7.46906 0.401058 6.36886 1.38794 6.07542 2.79905C5.81701 4.04218 6.27086 5.19912 7.10946 5.59026C6.99765 5.10016 7.00855 4.24842 7.85773 3.1809ZM8.86749 0.698731C8.9227 0.97015 8.95298 1.35095 8.85883 1.80367C8.76426 2.25907 8.54369 2.78676 8.09742 3.34785C7.19137 4.48624 7.31895 5.33344 7.44892 5.70094C7.45634 5.70238 7.46328 5.70415 7.47014 5.70557C8.53403 5.89953 9.6341 4.91282 9.92749 3.50156C10.1888 2.24575 9.72259 1.07772 8.86749 0.698731Z" fill="white"/>
</svg>

<svg width="10" height="10" fill="none" xmlns="http://www.w3.org/2000/svg"><path d="M1.839 8.874c-.462-.764-.148-1.96.808-2.856C3.733 5.001 5.234 4.759 6 5.477l.003.003c-.153.418-.642 1.307-2.106 1.787C2.556 7.708 2.04 8.41 1.84 8.874zm3.71-2.225c-.35.329-.848.65-1.553.882-1.43.47-1.83 1.24-1.942 1.612l.015.015c.766.718 2.268.475 3.353-.541.966-.905 1.277-2.117.794-2.88a2.92 2.92 0 01-.667.912zM2.59 3.343c1.545.127 2.381-.495 2.705-.817l-.002-.003c-.382-.95-1.857-1.308-3.293-.8C.734 2.168-.079 3.138.006 4.012c.387-.347 1.166-.786 2.582-.67zm.795 1.818c1.279-.452 2.095-1.437 1.99-2.317a3.18 3.18 0 01-1.009.573c-.463.164-1.058.266-1.802.205-1.51-.124-2.214.422-2.48.72l.008.018c.382.95 1.857 1.309 3.293.8zm4.474-1.98c.927-1.165.801-2.158.679-2.585L8.533.595c-1.064-.194-2.164.793-2.458 2.204-.258 1.243.196 2.4 1.034 2.791-.111-.49-.1-1.342.749-2.41zM8.868.699a2.73 2.73 0 01-.01 1.105c-.094.455-.314.983-.76 1.544-.907 1.138-.78 1.985-.65 2.353l.022.005c1.064.194 2.164-.793 2.457-2.204.262-1.256-.204-2.424-1.06-2.803z" fill="#E5E5E5"/></svg>
